src/components/Icon/svg-icon/main/formatting-bold.svg

<svg xmlns="http://www.w3.org/2000/svg" width="24" height="24"><path fill="#677078" d="M15.6 10.79c.97-.67 1.65-1.77 1.65-2.79 0-2.26-1.75-4-4-4H7v14h7.04c2.09 0 3.71-1.7 3.71-3.79 0-1.52-.86-2.82-2.15-3.42zM10 6.5h3c.83 0 1.5.67 1.5 1.5s-.67 1.5-1.5 1.5h-3v-3zm3.5 9H10v-3h3.5c.83 0 1.5.67 1.5 1.5s-.67 1.5-1.5 1.5z"/></svg>

<svg xmlns="http://www.w3.org/2000/svg" width="24" height="24" viewBox="0 0 24 24">
  <path fill="#677078" d="M15.6,10.79 C16.57,10.12 17.25,9.02 17.25,8 C17.25,5.74 15.5,4 13.25,4 L7,4 L7,18 L14.04,18 C16.13,18 17.75,16.3 17.75,14.21 C17.75,12.69 16.89,11.39 15.6,10.79 Z M10,6.5 L13,6.5 C13.83,6.5 14.5,7.17 14.5,8 C14.5,8.83 13.83,9.5 13,9.5 L10,9.5 L10,6.5 Z M13.5,15.5 L10,15.5 L10,12.5 L13.5,12.5 C14.33,12.5 15,13.17 15,14 C15,14.83 14.33,15.5 13.5,15.5 Z"/>
</svg>
